X: 30638
T: Onwards And Downwards
R: hornpipe
M: 4/4
K: Edorian
|:"Em7"Beed g2ed|edBA B2AB|"A7"GAce- edcA|"C"GAcd "D"gede|
"Em7"Beed g2ed|edBd-d2 Bc|"A"dBde "D"defd|"Em7"e2E2E2FA:|
|:"C"Beed eezB-|"Am7"Befd eezg-|"Em7"gafe- egdB-|BABd "Bm7"BABd|
"C"Bfgd "D"eezb-|"G"baga gedB|"A"dBde "D"defd|"Em"e2E2E2FA:|

